!!!OTL: Mazongzhihui daqueshan
!!!ARE: Asia, China,ÿHenan Queshan
!! IV, 127
!!!SCT: C1945
!!!YEM: Copyright 1995, estate of Helmut Schaffrath.
**kern
*ICvox
*Ivox
*M2/4
*k[f#c#g#]
*A:
{8.b
16ee
8b
8a
=1
8b
8ee
8b
16b
16a
=2
8.b
16cc#
4b}
=3
{8.b
16cc#
4b}
=4
{8.b
16b
8b
8b
=5
8g#
8f#
4e}
=6
{8a
16f#
16a
8b
16a
16a
=7
8f#
8c#
4e}
=8
{8.ee
16cc#
8b
8b
=9
8f#
8a
8b
8r}
=10
{8.cc#
16b
8a
8a
=11
8f#
8c#
8e
8r}
=12
{8a
16f#
16a
8b
8a
=13
8a
16f#
16a
8b
8a
=14
8f#
8c#
4e}
==
!!!AGN: Haozi
!!!AMT: simple duple
!!!AIN: vox
!!!EED: Helmut Schaffrath
!!!EEV: 1.0
*-
